X: 88
T:Y Ddafad Gorniog
T:The Horned Ram
M:2/2
L:1/8
Q:150
C:Trad
S:Blodau'r Grug Collection Vol. 1
R:Set Dance
A:Wales
Z:brian_martin12345@yahoo.com
K:G
G>AB>c d2d>g|f>g e>f d4|G>AB>c d2d>g|(3fag (3egf d3 B/c/|!
d>B d>e c>A c>d|B>G d>B A3 B/c/|d>B d>e c>A d>c|B>G A>B G4:||

